X: 147
T: Cantantibus organis – Allegro
C: Franciszek Walczyński
%%abc-version 2.0
%%abcx-abcm2ps-target-version 5.9.1 (29 Sep 2008)
%%abc-creator hum2abc beta
%%abcx-conversion-date 2021/10/04 07:38:39
%%abc-edited-by Andrzej Gręziak
%%abcx-initial-encoding-date 2021-07-28
%%humdrum-veritas 372142524
%%humdrum-veritas-data 2245784692
%%linebreak <none>
%%barnumbers 0
L: 1/8
M: C
N: Derived from pl-kozmzk--mzk-m-346--049_walczynski-franciszek--cantantibus-organis-allegro.krn
Q: "Allegro."
%%staves {1 2}
V: 1 clef=treble
V: 2 clef=bass
K: Eb
[V:1] gag^f gc'ba | 
[V:2] [e8c8]- | 
[V:1] gag^fg2=f2 | 
[V:2] [e4c4][d4=B4] | 
[V:1] [e4c4]d4 | 
[V:2] cBAG F^FG=F | 
[V:1] cdefg2z2 & G2>c2=B2z2 | 
[V:2] E=B,CA, G,F,E,D, | 
[V:1] GAG^F GcBA & E8 | 
[V:2] C,8- | 
[V:1] GAG^FG2=F2 & E4D4 | 
[V:2] C,2C2=B,4 | 
[V:1] E4D4 & C6=B,2 | 
[V:2] C_B,A,G, F,^F,G,=F, | 
[V:1] CDE=E FGA=A & C2<G,2C3_E- | 
[V:2] E,=B,,C,_B,, A,,G,,F,,^F,, | 
[V:1] G2c4-=B2 & E4D2GF- | 
[V:2] G,,2A,,2=F,,2G,,2 | 
[V:1] !fermata!c8 & FEDF!fermata!E4 |]  
[V:2] !fermata!C,,8 |]  


